X:7567
T:Ingen Rikedom har jag haft
R:Polska
O:Sweden
M:3/4
C:e. Lejsme Per
A:Dalarna
K:Am
e|\
(3:2:4ge e2c2 c>c|(3B^GB A3B|\
(3:2:4cBA2B2 c>e|d<^f e3::
e|\
(3:2:5ed/c/ cA3 A>g|(3:2:5g^f/g/a2f2 d2|\
(3:2:4e^f fg3 (c2|(3:2:4c)Bc2d2 e>^f|\
(3:2:4g^fe2d2 c>c|(3B^GB A3:|
